X:280
T: Quinn's
T: Aherlow
T: Port U\'i Chuinn
S: B.Breathnach: "Ceol Rince na hEireann" II/64
Z: B.Black
L: 1/8
M: 6/8
R: jig
K: G
D|GBB BA/B/d|cAA ABc|dBD GFG|ABG FED|
GBB B2d|cAA ABc|dcA AGF|G3 G2 :|
D|GBd efg|fag e2d|BdB GFG|ABG FED|
GBd efg|fag e2d|BdB GFG|AGF G2 :|

